assets/img/svg/01.svg

<svg width="100" height="100" viewBox="0 0 100 100" fill="none" xmlns="http://www.w3.org/2000/svg">
<path d="M21.5 82.5C24.7 82.5 32.5 62.2 36 52L39.5 53.5L30 80.5L27 83.5L21.5 82.5Z" fill="#D9EBFF"/>
<path d="M59 36C55 29.6 47 27 43.5 26.5L42.5 25.5L49 24H55L61 29.5L64 34.5H62L59 36Z" fill="#D9EBFF"/>
<path d="M64.5 83.5C64.5 76.3 59.2 70.5 56.5 68.5L58 66L65 67L69 79L73 83.5H64.5Z" fill="#D9EBFF"/>
<path d="M54 61C57.2 58.2 56 45.8 55 40L60 41.5L61 52V55.5L59 58.5L54 61Z" fill="#D9EBFF"/>
<path fill-rule="evenodd" clip-rule="evenodd" d="M47.7 22.3002C42.6 23.1002 38.4 26.0002 35.8 30.4002C35.1 31.5002 34.3 33.6002 34.1 34.4002C34 34.7002 33.7 35.2002 33.2 35.8002C31.8 37.3002 31.1 38.7002 30.8 40.4002C30.7 41.2002 30.7 41.9002 30.9 43.9002C31 45.3002 31.1 46.7002 31.2 47.0002C31.3 47.6002 31.3 47.6002 30.9 47.6002C30.7 47.6002 30.4 47.8002 30.2 48.0002C29.7 48.3002 16.6 71.0002 15.8 72.6002C13.8 76.8002 15.7 82.0002 20 84.1002C22 85.0002 20.1 85.0002 50 85.0002C79.9 85.0002 78.1 85.1002 80 84.1002C83.6 82.3002 85.6 78.3002 84.8 74.4002C84.5 73.2002 84.2 72.5002 82.7 69.8002C81.6 67.9002 81.4 67.6002 81 67.4002C80.4 67.2002 79.7 67.3002 79.4 67.8002C79 68.4002 79.1 69.0002 80.4 71.3002C81.9 73.9002 82.2 74.5002 82.3 75.7002C82.5 78.6002 80.6 81.3002 77.8 82.1002C75.1 82.8002 72.2 81.5002 71 79.0002C70.5 77.9002 61.7 54.0002 61.8 54.0002C61.9 53.9002 68.6 50.8002 68.7 50.8002C68.7 50.8002 69.8 52.6002 71 54.7002C72.2 56.9002 73.4 58.8002 73.6 59.0002C74.3 59.7002 75.5 59.4002 75.8 58.4002C76 57.8002 76.2 58.3002 73 52.6002C71.6 50.1002 70.3 48.0002 70.1 47.8002C69.9 47.6002 69.6 47.5002 69.4 47.5002C69.1 47.5002 69.1 47.5002 69.1 47.0002C69.1 46.7002 69.3 45.3002 69.4 43.9002C69.6 41.5002 69.6 41.2002 69.4 40.2002C69.1 38.6002 68.4 37.3002 67.2 36.0002C66.4 35.2002 66.2 34.8002 66.1 34.3002C65.9 33.4002 65.1 31.5002 64.4 30.4002C62 26.3002 57.7 23.4002 53.1 22.6002C51.8 22.3002 48.6 22.2002 47.7 22.3002ZM53.5 25.4002C54.7 25.7002 56.8 26.7002 57.8 27.3002C58.7 27.9002 59.7 28.8002 60.5 29.7002C61.2 30.5002 62.5 32.5002 62.5 32.8002C62.5 32.9002 62.3 33.0002 61.8 33.0002C59 33.0002 56.8 36.1002 57.6 38.8002C57.8 39.4002 57.8 39.4002 57.5 39.4002C57 39.4002 54.2 38.4002 52.9 37.8002C51.3 37.1002 49.5 35.9002 48 34.7002C47 33.9002 46.7 33.7002 46.3 33.7002C45.7 33.7002 43.7 34.4002 42.7 34.9002C42 35.2002 42 35.2002 41.9 35.0002C41.6 34.5002 40.6 33.6002 39.9 33.3002C39.5 33.1002 38.9 33.0002 38.4 32.9002C37.9 32.9002 37.5 32.8002 37.5 32.7002C37.5 32.5002 38.5 30.8002 39 30.2002C39.6 29.4002 41.3 27.8002 42.1 27.2002C43.8 26.1002 45.3 25.4002 47.2 25.0002C48.6 24.9002 52.1 25.0002 53.5 25.4002ZM38.9 36.0002C39.4 36.3002 39.8 37.1002 39.8 37.6002C39.8 37.8002 39.4 39.1002 38.8 40.6002L37.8 43.2002L38 45.2002C38.1 46.3002 38.2 47.5002 38.2 47.9002C38.2 48.7002 38 50.2002 37.8 50.4002C37.7 50.5002 37.2 50.3002 35.9 49.7002C34.9 49.2002 34 48.8002 34 48.8002C34 48.8002 33.8 47.1002 33.6 45.1002C33.2 41.0002 33.3 40.5002 33.9 39.2002C34.3 38.5002 36.4 36.2002 37 35.9002C37.5 35.7002 38.5 35.8002 38.9 36.0002ZM63.1 36.0002C63.9 36.5002 65.7 38.4002 66.1 39.2002C66.7 40.5002 66.8 41.2002 66.4 45.2002C66.2 47.2002 66.1 48.8002 66 48.8002C66 48.8002 65.1 49.2002 64.1 49.7002C62.7 50.3002 62.2 50.5002 62.2 50.4002C62 50.1002 61.8 48.6002 61.8 47.9002C61.8 47.5002 61.9 46.3002 62 45.2002L62.2 43.2002L61.2 40.6002C60.7 39.2002 60.2 37.8002 60.2 37.6002C60.2 37.1002 60.6 36.4002 61.1 36.1002C61.5 35.7002 62.5 35.7002 63.1 36.0002ZM47.3 37.7002C50.3 40.0002 54 41.6002 57.8 42.4002L59 42.6002L59.2 43.1002C59.4 43.6002 59.4 44.0002 59.2 45.5002C59 47.7002 59.1 49.3002 59.5 50.8002C59.7 51.7002 59.7 51.8002 59.5 51.9002C59.1 52.0002 58.6 52.8002 58.6 53.1002C58.6 53.3002 58.8 53.9002 59 54.6002C59.5 56.0002 59.5 55.9002 58 57.4002C56.7 58.7002 55.4 59.4002 53.7 60.0002C52.6 60.4002 52.2 60.4002 50.6 60.5002C47.9 60.6002 45.9 60.0002 43.8 58.7002C42.9 58.1002 40.8 56.0002 40.8 55.8002C40.8 55.7002 41 55.2002 41.2 54.5002C41.7 53.2002 41.7 52.7002 41 52.1002C40.8 51.9002 40.5 51.8002 40.5 51.8002C40.4 51.8002 40.5 51.4002 40.7 50.8002C41.1 49.4002 41.1 47.7002 41 45.5002L40.8 43.6002L41.7 41.2002C42.2 39.9002 42.6 38.7002 42.6 38.6002C42.6 38.3002 42.9 38.1002 43.7 37.7002C44.5 37.3002 45.8 36.8002 46 36.8002C45.9 36.7002 46.6 37.2002 47.3 37.7002ZM35.1 52.3002C37.6 53.5002 38.4 53.9002 38.3 54.0002C38.1 54.9002 29.5 78.1002 29.1 78.8002C28.1 80.9002 25.7 82.3002 23.3 82.1002C21 82.0002 19 80.5002 18.1 78.3002C17.7 77.2002 17.7 75.2002 18 74.2002C18.1 73.8002 21.2 68.4002 24.8 62.1002C29.7 53.5002 31.4 50.7002 31.6 50.7002C31.8 50.8002 33.3 51.5002 35.1 52.3002ZM42.1 60.9002C42.7 61.3002 42.8 61.5002 42.4 62.5002C42.1 63.4002 41.1 64.4002 40.2 64.6002C39.4 64.8002 37.5 65.1002 37.4 65.0002C37.4 65.0002 37.8 63.6002 38.5 61.9002L39.6 58.8002L40.6 59.7002C41.1 60.1002 41.7 60.7002 42.1 60.9002ZM62.7 65.0002C62.6 65.1002 60.3 64.7002 59.7 64.5002C58.6 64.1002 57.7 63.0002 57.5 61.8002C57.4 61.3002 57.4 61.2002 58.1 60.7002C58.5 60.4002 59.2 59.9002 59.6 59.5002L60.4 58.8002L61.5 61.9002C62.2 63.6002 62.7 65.0002 62.7 65.0002ZM76.7 62.2002C76.1 62.6002 75.9 63.1002 76.1 63.7002C76.4 64.7002 77.6 65.0002 78.3 64.2002C79 63.5002 78.7 62.3002 77.9 62.0002C77.3 61.8002 77.2 61.8002 76.7 62.2002ZM46.5 62.9002C47.5 63.2002 48 63.2002 50 63.2002C52 63.2002 52.6 63.2002 53.5 62.9002C54.1 62.7002 54.6 62.6002 54.7 62.6002C54.7 62.6002 54.9 62.9002 55 63.3002C55.1 63.7002 55.4 64.3002 55.7 64.8002L56.2 65.6002L55.9 65.8002C55.3 66.3002 53.9 67.0002 53 67.3002C50 68.3002 46.6 67.7002 44.1 65.8002L43.8 65.6002L44.3 64.8002C44.6 64.4002 44.9 63.7002 45 63.3002C45.1 62.9002 45.2 62.6002 45.3 62.6002C45.3 62.6002 45.9 62.7002 46.5 62.9002ZM42.4 67.8002C46.1 70.6002 51.2 71.2002 55.4 69.2002C56 68.9002 56.9 68.3002 57.5 67.9002C58.5 67.1002 58.6 67.1002 59 67.2002C59.2 67.3002 60.4 67.5002 61.6 67.7002C62.8 67.9002 63.8 68.1002 63.8 68.1002C63.8 68.1002 64.8 70.7002 65.9 73.9002C68.2 80.2002 68.4 80.6002 69.2 81.6002L69.8 82.3002H50H30.2L30.7 81.7002C31.5 80.7002 32 79.7002 34.1 73.9002C35.3 70.7002 36.2 68.1002 36.2 68.1002C36.2 68.1002 37.2 67.9002 38.5 67.7002C39.7 67.5002 40.9 67.3002 41 67.2002C41.3 67.0002 41.4 67.0002 42.4 67.8002Z" fill="#61A1F4"/>
<path d="M24.5999 16.4001C24.5999 15.8001 24.7999 15.4001 25.2999 15.2001C25.7999 14.9001 26.2999 14.9001 26.6999 15.2001C26.9999 15.4001 30.9999 19.7001 31.9999 20.9001C32.4999 21.5001 32.5999 22.1001 32.1999 22.7001C31.8999 23.1001 31.3999 23.3001 30.1999 23.4001C28.5999 23.6001 28.5999 23.4001 30.3999 25.6001C32.7999 28.6001 32.8999 28.8001 32.3999 29.6001C31.9999 30.4001 30.8999 30.5001 30.1999 29.7001C29.2999 28.7001 24.9999 23.1001 24.8999 22.8001C24.7999 22.4001 25.0999 21.7001 25.4999 21.4001C25.6999 21.3001 26.2999 21.1001 26.8999 21.1001C27.4999 21.0001 28.0999 20.9001 28.1999 20.9001C28.3999 20.8001 28.1999 20.6001 26.1999 18.4001C24.6999 17.1001 24.5999 16.9001 24.5999 16.4001Z" fill="#F29021"/>
<path d="M67.9999 21.0001C68.6999 20.1001 73.0999 15.4001 73.3999 15.2001C73.7999 14.9001 74.1999 14.9001 74.6999 15.2001C75.1999 15.5001 75.3999 15.8001 75.3999 16.4001C75.3999 16.8001 75.1999 17.1001 73.9999 18.4001C71.9999 20.6001 71.7999 20.8001 71.9999 20.9001C72.0999 20.9001 72.6999 21.0001 73.2999 21.1001C73.8999 21.2001 74.4999 21.3001 74.6999 21.4001C75.0999 21.6001 75.3999 22.3001 75.2999 22.8001C75.1999 23.1001 70.8999 28.7001 69.9999 29.7001C69.2999 30.5001 68.1999 30.4001 67.7999 29.6001C67.3999 28.8001 67.3999 28.6001 69.7999 25.6001C71.5999 23.4001 71.5999 23.6001 69.9999 23.4001C68.7999 23.3001 68.2999 23.1001 67.9999 22.7001C67.4999 22.2001 67.5999 21.5001 67.9999 21.0001Z" fill="#F29021"/>
<path d="M15.1998 30.1001C14.8998 29.4001 15.0998 28.6001 15.6998 28.3001C15.8998 28.2001 16.1998 28.1001 16.3998 28.1001C16.7998 28.1001 23.6998 31.4001 24.0998 31.8001C24.5998 32.2001 24.5998 32.7001 24.2998 33.3001C24.0998 33.7001 23.7998 33.9001 22.8998 34.5001C22.1998 34.9001 21.6998 35.2001 21.7998 35.3001C21.8998 35.4001 22.9998 36.0001 24.1998 36.7001C26.8998 38.3001 27.1998 38.5001 27.1998 39.2001C27.1998 39.7001 27.0998 39.8001 26.6998 40.2001C26.2998 40.5001 26.1998 40.6001 25.6998 40.5001C25.0998 40.4001 18.0998 36.5001 17.6998 36.0001C16.9998 35.1001 17.2998 34.4001 18.8998 33.5001L20.0998 32.8001L17.6998 31.6001C15.7998 30.7001 15.2998 30.4001 15.1998 30.1001Z" fill="#F29021"/>
<path d="M75.9 31.8001C76.1 31.6001 77.8 30.8001 79.7 29.8001C81.7 28.9001 83.4 28.1001 83.6 28.1001C84.3 28.1001 85 28.7001 85 29.5001C85 30.3001 84.7 30.5001 82.2 31.7001L79.8 32.9001L81 33.6001C82.4 34.4001 82.7 34.9001 82.4 35.7001C82.2 36.3001 82.2 36.3001 78 38.7001C76.1 39.8001 74.5 40.6001 74.2 40.6001C73.8 40.7001 73.6 40.6001 73.2 40.3001C72.8 40.0001 72.7 39.8001 72.7 39.3001C72.7 38.5001 72.9 38.3001 75.7 36.8001C77 36.1001 78.1 35.4001 78.1 35.4001C78.2 35.3001 77.7 35.0001 77 34.6001C76.1 34.1001 75.7 33.8001 75.6 33.4001C75.4 32.7001 75.5 32.2001 75.9 31.8001Z" fill="#F29021"/>
</svg>

<?xml version="1.0" encoding="utf-8"?>
<!-- Generator: Adobe Illustrator 25.4.1, SVG Export Plug-In . SVG Version: 6.00 Build 0)  -->
<svg version="1.1" xmlns="http://www.w3.org/2000/svg" xmlns:xlink="http://www.w3.org/1999/xlink" x="0px" y="0px"
	 viewBox="0 0 100 100" style="enable-background:new 0 0 100 100;" xml:space="preserve">
<style type="text/css">
	.st0{fill:#D9EBFF;}
	.st1{fill-rule:evenodd;clip-rule:evenodd;fill:#61A1F4;}
	.st2{fill:#F29021;}
</style>
<g id="unactive_00000176747219202395070510000007931578184420946597_">
	<path class="st0" d="M21.5,82.5c3.2,0,11-20.3,14.5-30.5l3.5,1.5l-9.5,27l-3,3L21.5,82.5z"/>
	<path class="st0" d="M59,36c-4-6.4-12-9-15.5-9.5l-1-1L49,24h6l6,5.5l3,5h-2L59,36z"/>
	<path class="st0" d="M64.5,83.5c0-7.2-5.3-13-8-15L58,66l7,1l4,12l4,4.5H64.5z"/>
	<path class="st0" d="M54,61c3.2-2.8,2-15.2,1-21l5,1.5L61,52v3.5l-2,3L54,61z"/>
	<path class="st1" d="M47.7,22.3c-5.1,0.8-9.3,3.7-11.9,8.1c-0.7,1.1-1.5,3.2-1.7,4c-0.1,0.3-0.4,0.8-0.9,1.4
		c-1.4,1.5-2.1,2.9-2.4,4.6c-0.1,0.8-0.1,1.5,0.1,3.5c0.1,1.4,0.2,2.8,0.3,3.1c0.1,0.6,0.1,0.6-0.3,0.6c-0.2,0-0.5,0.2-0.7,0.4
		C29.7,48.3,16.6,71,15.8,72.6c-2,4.2-0.1,9.4,4.2,11.5c2,0.9,0.1,0.9,30,0.9c29.9,0,28.1,0.1,30-0.9c3.6-1.8,5.6-5.8,4.8-9.7
		c-0.3-1.2-0.6-1.9-2.1-4.6c-1.1-1.9-1.3-2.2-1.7-2.4c-0.6-0.2-1.3-0.1-1.6,0.4c-0.4,0.6-0.3,1.2,1,3.5c1.5,2.6,1.8,3.2,1.9,4.4
		c0.2,2.9-1.7,5.6-4.5,6.4c-2.7,0.7-5.6-0.6-6.8-3.1c-0.5-1.1-9.3-25-9.2-25c0.1-0.1,6.8-3.2,6.9-3.2c0,0,1.1,1.8,2.3,3.9
		c1.2,2.2,2.4,4.1,2.6,4.3c0.7,0.7,1.9,0.4,2.2-0.6c0.2-0.6,0.4-0.1-2.8-5.8c-1.4-2.5-2.7-4.6-2.9-4.8c-0.2-0.2-0.5-0.3-0.7-0.3
		c-0.3,0-0.3,0-0.3-0.5c0-0.3,0.2-1.7,0.3-3.1c0.2-2.4,0.2-2.7,0-3.7c-0.3-1.6-1-2.9-2.2-4.2c-0.8-0.8-1-1.2-1.1-1.7
		c-0.2-0.9-1-2.8-1.7-3.9c-2.4-4.1-6.7-7-11.3-7.8C51.8,22.3,48.6,22.2,47.7,22.3z M53.5,25.4c1.2,0.3,3.3,1.3,4.3,1.9
		c0.9,0.6,1.9,1.5,2.7,2.4c0.7,0.8,2,2.8,2,3.1c0,0.1-0.2,0.2-0.7,0.2c-2.8,0-5,3.1-4.2,5.8c0.2,0.6,0.2,0.6-0.1,0.6
		c-0.5,0-3.3-1-4.6-1.6c-1.6-0.7-3.4-1.9-4.9-3.1c-1-0.8-1.3-1-1.7-1c-0.6,0-2.6,0.7-3.6,1.2c-0.7,0.3-0.7,0.3-0.8,0.1
		c-0.3-0.5-1.3-1.4-2-1.7c-0.4-0.2-1-0.3-1.5-0.4c-0.5,0-0.9-0.1-0.9-0.2c0-0.2,1-1.9,1.5-2.5c0.6-0.8,2.3-2.4,3.1-3
		c1.7-1.1,3.2-1.8,5.1-2.2C48.6,24.9,52.1,25,53.5,25.4z M38.9,36c0.5,0.3,0.9,1.1,0.9,1.6c0,0.2-0.4,1.5-1,3l-1,2.6l0.2,2
		c0.1,1.1,0.2,2.3,0.2,2.7c0,0.8-0.2,2.3-0.4,2.5c-0.1,0.1-0.6-0.1-1.9-0.7c-1-0.5-1.9-0.9-1.9-0.9c0,0-0.2-1.7-0.4-3.7
		c-0.4-4.1-0.3-4.6,0.3-5.9c0.4-0.7,2.5-3,3.1-3.3C37.5,35.7,38.5,35.8,38.9,36z M63.1,36c0.8,0.5,2.6,2.4,3,3.2
		c0.6,1.3,0.7,2,0.3,6c-0.2,2-0.3,3.6-0.4,3.6c0,0-0.9,0.4-1.9,0.9c-1.4,0.6-1.9,0.8-1.9,0.7c-0.2-0.3-0.4-1.8-0.4-2.5
		c0-0.4,0.1-1.6,0.2-2.7l0.2-2l-1-2.6c-0.5-1.4-1-2.8-1-3c0-0.5,0.4-1.2,0.9-1.5C61.5,35.7,62.5,35.7,63.1,36z M47.3,37.7
		c3,2.3,6.7,3.9,10.5,4.7l1.2,0.2l0.2,0.5c0.2,0.5,0.2,0.9,0,2.4c-0.2,2.2-0.1,3.8,0.3,5.3c0.2,0.9,0.2,1,0,1.1
		c-0.4,0.1-0.9,0.9-0.9,1.2c0,0.2,0.2,0.8,0.4,1.5c0.5,1.4,0.5,1.3-1,2.8c-1.3,1.3-2.6,2-4.3,2.6c-1.1,0.4-1.5,0.4-3.1,0.5
		c-2.7,0.1-4.7-0.5-6.8-1.8c-0.9-0.6-3-2.7-3-2.9c0-0.1,0.2-0.6,0.4-1.3c0.5-1.3,0.5-1.8-0.2-2.4c-0.2-0.2-0.5-0.3-0.5-0.3
		c-0.1,0,0-0.4,0.2-1c0.4-1.4,0.4-3.1,0.3-5.3l-0.2-1.9l0.9-2.4c0.5-1.3,0.9-2.5,0.9-2.6c0-0.3,0.3-0.5,1.1-0.9
		c0.8-0.4,2.1-0.9,2.3-0.9C45.9,36.7,46.6,37.2,47.3,37.7z M35.1,52.3c2.5,1.2,3.3,1.6,3.2,1.7c-0.2,0.9-8.8,24.1-9.2,24.8
		c-1,2.1-3.4,3.5-5.8,3.3C21,82,19,80.5,18.1,78.3c-0.4-1.1-0.4-3.1-0.1-4.1c0.1-0.4,3.2-5.8,6.8-12.1c4.9-8.6,6.6-11.4,6.8-11.4
		C31.8,50.8,33.3,51.5,35.1,52.3z M42.1,60.9c0.6,0.4,0.7,0.6,0.3,1.6c-0.3,0.9-1.3,1.9-2.2,2.1c-0.8,0.2-2.7,0.5-2.8,0.4
		c0,0,0.4-1.4,1.1-3.1l1.1-3.1l1,0.9C41.1,60.1,41.7,60.7,42.1,60.9z M62.7,65c-0.1,0.1-2.4-0.3-3-0.5c-1.1-0.4-2-1.5-2.2-2.7
		c-0.1-0.5-0.1-0.6,0.6-1.1c0.4-0.3,1.1-0.8,1.5-1.2l0.8-0.7l1.1,3.1C62.2,63.6,62.7,65,62.7,65z M76.7,62.2
		c-0.6,0.4-0.8,0.9-0.6,1.5c0.3,1,1.5,1.3,2.2,0.5c0.7-0.7,0.4-1.9-0.4-2.2C77.3,61.8,77.2,61.8,76.7,62.2z M46.5,62.9
		c1,0.3,1.5,0.3,3.5,0.3c2,0,2.6,0,3.5-0.3c0.6-0.2,1.1-0.3,1.2-0.3c0,0,0.2,0.3,0.3,0.7c0.1,0.4,0.4,1,0.7,1.5l0.5,0.8l-0.3,0.2
		c-0.6,0.5-2,1.2-2.9,1.5c-3,1-6.4,0.4-8.9-1.5l-0.3-0.2l0.5-0.8c0.3-0.4,0.6-1.1,0.7-1.5c0.1-0.4,0.2-0.7,0.3-0.7
		C45.3,62.6,45.9,62.7,46.5,62.9z M42.4,67.8c3.7,2.8,8.8,3.4,13,1.4c0.6-0.3,1.5-0.9,2.1-1.3c1-0.8,1.1-0.8,1.5-0.7
		c0.2,0.1,1.4,0.3,2.6,0.5c1.2,0.2,2.2,0.4,2.2,0.4c0,0,1,2.6,2.1,5.8c2.3,6.3,2.5,6.7,3.3,7.7l0.6,0.7H50H30.2l0.5-0.6
		c0.8-1,1.3-2,3.4-7.8c1.2-3.2,2.1-5.8,2.1-5.8c0,0,1-0.2,2.3-0.4c1.2-0.2,2.4-0.4,2.5-0.5C41.3,67,41.4,67,42.4,67.8z"/>
</g>
<g id="active_00000170966153855624717490000018275619963249243538_">
	<path class="st2" d="M24.6,16.4c0-0.6,0.2-1,0.7-1.2c0.5-0.3,1-0.3,1.4,0c0.3,0.2,4.3,4.5,5.3,5.7c0.5,0.6,0.6,1.2,0.2,1.8
	c-0.3,0.4-0.8,0.6-2,0.7c-1.6,0.2-1.6,0,0.2,2.2c2.4,3,2.5,3.2,2,4c-0.4,0.8-1.5,0.9-2.2,0.1c-0.9-1-5.2-6.6-5.3-6.9
	c-0.1-0.4,0.2-1.1,0.6-1.4c0.2-0.1,0.8-0.3,1.4-0.3c0.6-0.1,1.2-0.2,1.3-0.2c0.2-0.1,0-0.3-2-2.5C24.7,17.1,24.6,16.9,24.6,16.4z"
	/>
	<path class="st2" d="M68,21c0.7-0.9,5.1-5.6,5.4-5.8c0.4-0.3,0.8-0.3,1.3,0c0.5,0.3,0.7,0.6,0.7,1.2c0,0.4-0.2,0.7-1.4,2
		c-2,2.2-2.2,2.4-2,2.5c0.1,0,0.7,0.1,1.3,0.2c0.6,0.1,1.2,0.2,1.4,0.3c0.4,0.2,0.7,0.9,0.6,1.4c-0.1,0.3-4.4,5.9-5.3,6.9
		c-0.7,0.8-1.8,0.7-2.2-0.1c-0.4-0.8-0.4-1,2-4c1.8-2.2,1.8-2,0.2-2.2c-1.2-0.1-1.7-0.3-2-0.7C67.5,22.2,67.6,21.5,68,21z"/>
	<path class="st2" d="M15.2,30.1c-0.3-0.7-0.1-1.5,0.5-1.8c0.2-0.1,0.5-0.2,0.7-0.2c0.4,0,7.3,3.3,7.7,3.7c0.5,0.4,0.5,0.9,0.2,1.5
		c-0.2,0.4-0.5,0.6-1.4,1.2c-0.7,0.4-1.2,0.7-1.1,0.8c0.1,0.1,1.2,0.7,2.4,1.4c2.7,1.6,3,1.8,3,2.5c0,0.5-0.1,0.6-0.5,1
		c-0.4,0.3-0.5,0.4-1,0.3c-0.6-0.1-7.6-4-8-4.5c-0.7-0.9-0.4-1.6,1.2-2.5l1.2-0.7l-2.4-1.2C15.8,30.7,15.3,30.4,15.2,30.1z"/>
	<path class="st2" d="M75.9,31.8c0.2-0.2,1.9-1,3.8-2c2-0.9,3.7-1.7,3.9-1.7c0.7,0,1.4,0.6,1.4,1.4c0,0.8-0.3,1-2.8,2.2l-2.4,1.2
		l1.2,0.7c1.4,0.8,1.7,1.3,1.4,2.1c-0.2,0.6-0.2,0.6-4.4,3c-1.9,1.1-3.5,1.9-3.8,1.9c-0.4,0.1-0.6,0-1-0.3c-0.4-0.3-0.5-0.5-0.5-1
		c0-0.8,0.2-1,3-2.5c1.3-0.7,2.4-1.4,2.4-1.4c0.1-0.1-0.4-0.4-1.1-0.8c-0.9-0.5-1.3-0.8-1.4-1.2C75.4,32.7,75.5,32.2,75.9,31.8z"/>
</g>
</svg>
